X: 7
T:Vandalls of Hammerwich
T: Lichfield
M:4/4
L:1/4
A:Lichfield
P: A(AB)3 A2B
K:G
P:A
GE[|"G" DGBG |DGBG |"G"d2d>"D"d|d2d2 |
"G"DGBG |DGBG |"C"dc"D"AF |"G"G2  Bc |]
P:B
|:"G"d2d>d|d3d  |"C"egfe |"D"edd>e|
"C"dcc>c|"G"cBB>B|"C"dc"D"AF |1"G"G2 Bc :|2 "G"G2 |]


